poi/svg/1704.svg

<?xml version="1.0" encoding="UTF-8" standalone="no"?>
<svg
   xmlns:dc="http://purl.org/dc/elements/1.1/"
   xmlns:cc="http://creativecommons.org/ns#"
   xmlns:rdf="http://www.w3.org/1999/02/22-rdf-syntax-ns#"
   xmlns:svg="http://www.w3.org/2000/svg"
   xmlns="http://www.w3.org/2000/svg"
   xmlns:sodipodi="http://sodipodi.sourceforge.net/DTD/sodipodi-0.dtd"
   xmlns:inkscape="http://www.inkscape.org/namespaces/inkscape"
   inkscape:version="1.0 (4035a4fb49, 2020-05-01)"
   sodipodi:docname="1704.svg"
   id="svg20"
   version="1.2"
   viewBox="0 0 42.519639 42.519639"
   height="14.999999mm"
   width="14.999999mm">
  <metadata
     id="metadata24">
    <rdf:RDF>
      <cc:Work
         rdf:about="">
        <dc:format>image/svg+xml</dc:format>
        <dc:type
           rdf:resource="http://purl.org/dc/dcmitype/StillImage" />
        <dc:title>Qt SVG Document</dc:title>
      </cc:Work>
    </rdf:RDF>
  </metadata>
  <sodipodi:namedview
     inkscape:current-layer="svg20"
     inkscape:window-maximized="0"
     inkscape:window-y="0"
     inkscape:window-x="0"
     inkscape:cy="28.346482"
     inkscape:cx="28.346482"
     inkscape:zoom="5.8410537"
     showgrid="false"
     id="namedview22"
     inkscape:window-height="480"
     inkscape:window-width="1034"
     inkscape:pageshadow="2"
     inkscape:pageopacity="0"
     guidetolerance="10"
     gridtolerance="10"
     objecttolerance="10"
     borderopacity="1"
     bordercolor="#666666"
     pagecolor="#ffffff" />
  <title
     id="title2">Qt SVG Document</title>
  <desc
     id="desc4">Generated with Qt</desc>
  <defs
     id="defs6" />
  <g
     transform="translate(5.25984,5.25984)"
     id="g18"
     stroke-linejoin="bevel"
     stroke-linecap="square"
     fill-rule="evenodd"
     stroke-width="1"
     stroke="#000000"
     fill="none">
    <g
       id="g10"
       font-style="normal"
       font-weight="400"
       font-size="7.8px"
       font-family="'MS Shell Dlg 2'"
       stroke="none"
       fill-opacity="1"
       fill="#66b1e3">
      <path
         id="path8"
         d="M 37.2598,16 C 37.2598,27.7415 27.7415,37.2598 16,37.2598 4.25851,37.2598 -5.25984,27.7415 -5.25984,16 -5.25984,4.25851 4.25851,-5.25984 16,-5.25984 27.7415,-5.25984 37.2598,4.25851 37.2598,16"
         fill-rule="evenodd"
         vector-effect="non-scaling-stroke" />
    </g>
    <g
       id="g14"
       font-style="normal"
       font-weight="400"
       font-size="7.8px"
       font-family="'MS Shell Dlg 2'"
       transform="translate(16,13.1654)"
       stroke="none"
       fill-opacity="0.94902"
       fill="#ffffff">
      <path
         id="path12"
         d="M -3.38916,-1.09717 C -3.7111,-1.4751 -4.05404,-1.81803 -4.41797,-2.12598 -4.7679,-2.41992 -5.18433,-2.68587 -5.66724,-2.92383 c -0.48291,-0.23795 -1.0603,-0.43392 -1.73217,-0.58789 -0.96582,-0.16797 -1.6202,-0.45141 -1.96314,-0.85034 -0.34294,-0.39893 -0.33244,-0.74536 0.0315,-1.03931 0.32194,-0.22396 0.77685,-0.33593 1.36474,-0.33593 0.58789,0 1.25277,0.25895 1.99463,0.77685 0.37793,0.25195 0.72437,0.60189 1.03931,1.04981 0.31494,0.44791 0.58439,0.86783 0.80835,1.25976 0.13997,0.26595 0.26945,0.5284 0.38842,0.78735 0.11898,0.25896 0.23446,0.51441 0.34644,0.76636 M 1.90186,-5.44336 C 1.70589,-5.17741 1.48543,-4.92546 1.24048,-4.6875 0.995524,-4.44954 0.757568,-4.09961 0.526611,-3.6377 0.295654,-3.17578 0.0786947,-2.5494 -0.124268,-1.75854 -0.32723,-0.967692 -0.498698,0.113607 -0.638672,1.48535 -0.722656,0.589518 -0.852132,-0.180339 -1.0271,-0.824219 -1.20207,-1.4681 -1.37354,-2.04549 -1.5415,-2.5564 -1.70947,-3.0673 -1.85295,-3.53271 -1.97192,-3.95264 -2.0909,-4.37256 -2.13639,-4.78548 -2.1084,-5.19141 c 0.05599,-0.5319 0.19946,-1.00781 0.43042,-1.42773 0.23096,-0.41992 0.50391,-0.76636 0.818849,-1.03931 0.314942,-0.27295 0.661377,-0.46541 1.039307,-0.57739 0.377929,-0.11198 0.734863,-0.13997 1.070804,-0.08398 0.79785,0.13997 1.22827,0.4899 1.29126,1.0498 0.06298,0.5599 -0.15048,1.16878 -0.64038,1.82666 m -12.59766,2.28857 c 0.224,-0.05598 0.4864,-0.06998 0.78735,-0.04199 0.30095,0.028 0.58439,0.06999 0.85034,0.12598 0.13998,0.02799 0.28695,0.05599 0.44092,0.08398 0.15397,0.028 0.30795,0.06999 0.46192,0.12598 -0.15397,0.02799 -0.29395,0.05599 -0.41993,0.08398 -0.12597,0.028 -0.25895,0.06999 -0.39892,0.12598 -0.5459,0.15397 -0.95182,0.35693 -1.21778,0.60889 -0.3079,0.30794 -0.6404,0.44092 -0.9973,0.39892 -0.3569,-0.04199 -0.5774,-0.17496 -0.6614,-0.39892 -0.07,-0.19597 -0.0245,-0.40943 0.1365,-0.64038 0.161,-0.23096 0.5004,-0.38843 1.0183,-0.47242 m 5.75293,6.94971 C -6.03467,3.48698 -6.74504,3.09505 -7.07397,2.61914 -7.40291,2.14323 -7.32243,1.7513 -6.83252,1.44336 -6.4266,1.2054 -5.89469,1.09692 -5.23682,1.11792 c 0.65788,0.021 1.39974,0.36043 2.22559,1.01831 0.5459,0.41992 0.99032,0.89583 1.33325,1.42773 0.34294,0.53191 0.60889,1.05681 0.797853,1.57471 0.188965,0.51791 0.311442,1.00432 0.367432,1.45923 0.055989,0.45492 0.083984,0.82935 0.083984,1.12329 h 0.167969 c 0.3499347,0 0.654378,0.028 0.91333,0.08399 C 0.91154,7.86117 1.04102,7.93115 1.04102,8.01514 v 0.35693 c 0,0.11198 -0.12948,0.19596 -0.388432,0.25195 -0.258952,0.05599 -0.5633953,0.08399 -0.91333,0.08399 -0.335938,0 -0.626384,-0.028 -0.871338,-0.08399 C -1.37703,8.56803 -1.49951,8.48405 -1.49951,8.37207 V 8.01514 c 0,-0.05599 0.09448,-0.11898 0.28345,-0.18897 C -1.0271,7.75618 -0.792643,7.72119 -0.512695,7.72119 -0.568685,7.48324 -0.680664,7.18579 -0.848633,6.82886 -1.0166,6.47192 -1.26855,6.10799 -1.60449,5.73706 -1.94043,5.36613 -2.37785,5.0092 -2.91675,4.66626 -3.45565,4.32332 -4.13102,4.03288 -4.94287,3.79492 M -6.47559,-2 c 0.19597,-0.08398 0.49341,-0.06299 0.89234,0.06299 0.39892,0.12597 0.94132,0.39193 1.6272,0.79785 0.54589,0.307943 0.99731,0.671875 1.35424,1.0917967 0.35694,0.4199223 0.64038,0.8188473 0.85035,1.1967733 0.19596,0.41993 0.36393,0.84685 0.5039,1.28077 C -1.35954,2.20622 -1.48551,1.99976 -1.62549,1.81079 -1.76546,1.62183 -1.91243,1.42936 -2.06641,1.2334 -2.34635,0.911458 -2.71029,0.586019 -3.1582,0.25708 -3.60612,-0.0718587 -4.14502,-0.306315 -4.7749,-0.446289 -5.68473,-0.65625 -6.25513,-0.932699 -6.48608,-1.27563 -6.71704,-1.61857 -6.71354,-1.86003 -6.47559,-2 M 4.48438,12.5293 v 4.5561 c -0.65788,0.21 -1.35425,0.371 -2.08912,0.483 -0.73486,0.1119 -1.501217,0.1679 -2.2990686,0.1679 -0.8398434,0 -1.6586914,-0.063 -2.4565414,-0.1889 -0.79785,-0.126 -1.52572,-0.308 -2.1836,-0.5459 v -4.4302 c -0.57389,-0.112 -1.0393,-0.238 -1.39624,-0.3779 -0.35693,-0.14 -0.5354,-0.287 -0.5354,-0.441 v -0.2099 c 0.53191,0.2379 1.35075,0.4199 2.45655,0.5459 1.10579,0.126 2.39355,0.1889 3.863278,0.1889 1.455732,0 2.743492,-0.0629 3.863282,-0.1889 1.11979,-0.126 1.93864,-0.308 2.45654,-0.5459 v 0.2099 c 0,0.322 -0.57389,0.5809 -1.72168,0.7769 h 0.042 M 2.15381,3.98389 C 1.84587,4.03988 1.56242,4.16585 1.30347,4.36182 1.04451,4.55778 0.810059,4.77474 0.600098,5.0127 0.488118,5.15267 0.383138,5.30314 0.285156,5.46411 0.187174,5.62508 0.0961914,5.78955 0.012207,5.95752 c 0,-0.26595 0.0419922,-0.5529 0.125977,-0.86084 C 0.194173,4.83073 0.302653,4.54728 0.463623,4.24634 0.624593,3.94539 0.859049,3.65495 1.16699,3.375 1.6569,2.88509 2.10832,2.59115 2.52124,2.49316 2.93416,2.39518 3.2736,2.40218 3.53955,2.51416 3.70752,2.59814 3.8265,2.71362 3.89648,2.8606 c 0.06999,0.14697 0.06999,0.29044 0,0.43042 C 3.8265,3.43099 3.65503,3.56746 3.38208,3.70044 3.10913,3.83341 2.69971,3.9279 2.15381,3.98389 m 8.77639,-7.66358 c 0.5179,0.08399 0.8538,0.24146 1.0078,0.47241 0.154,0.23096 0.203,0.45842 0.147,0.68238 -0.084,0.29394 -0.3115,0.46191 -0.6824,0.5039 -0.3709,0.042 -0.7174,-0.09098 -1.0393,-0.39892 C 10.1113,-2.68587 9.7124,-2.88883 9.1665,-3.02881 9.02653,-3.0848 8.89006,-3.12679 8.75708,-3.15479 8.6241,-3.18278 8.48763,-3.21077 8.34766,-3.23877 l 0.90283,-0.27295 c 0.26595,-0.05599 0.5494,-0.10498 0.85031,-0.14697 0.301,-0.04199 0.5774,-0.04899 0.8294,-0.021 M 5.21924,-5.69531 c 0.57389,-0.23796 1.0603,-0.31844 1.45923,-0.24146 0.39892,0.07699 0.66837,0.21346 0.80835,0.40943 0.16797,0.22395 0.14697,0.47241 -0.06299,0.74536 -0.20996,0.27295 -0.60189,0.39542 -1.17578,0.36743 -0.86784,-0.05599 -1.6027,0.03849 -2.20459,0.28345 -0.60189,0.24495 -1.17578,0.61238 -1.72168,1.10229 0.32194,-0.60189 0.73486,-1.14079 1.23877,-1.6167 0.5039,-0.47591 1.0568,-0.82584 1.65869,-1.0498 m 1.44873,3.52734 c 0.5179,0.43392 0.50391,0.87834 -0.04199,1.333253 -0.5459,0.454916 -1.43474,0.724365 -2.66651,0.8083498 C 3.10563,0.0576172 2.41276,0.264079 1.88086,0.593018 1.34896,0.921956 0.922038,1.28939 0.600098,1.69531 0.26416,2.18522 0.012207,2.67513 -0.155762,3.16504 -0.127767,2.92708 -0.0857747,2.69613 -0.0297852,2.47217 0.0262044,2.24821 0.082194,2.01725 0.138184,1.7793 0.278158,1.38737 0.47762,0.953451 0.736572,0.477539 0.995524,0.0016276 1.35596,-0.467285 1.81787,-0.929199 2.7277,-1.83903 3.65503,-2.37443 4.59985,-2.5354 5.54468,-2.69637 6.23405,-2.57389 6.66797,-2.16797 M 6.75195,10.8916 c 0,0.154 -0.17846,0.2869 -0.5354,0.3989 -0.35693,0.112 -0.85034,0.21 -1.48022,0.294 -0.62988,0.084 -1.36825,0.1574 -2.21509,0.2204 -0.84684,0.063 -1.739176,0.0945 -2.677002,0.0945 -0.951818,0 -1.844158,-0.0315 -2.676998,-0.0945 -0.83285,-0.063 -1.56421,-0.1364 -2.1941,-0.2204 -0.62988,-0.084 -1.12329,-0.182 -1.48022,-0.294 -0.35693,-0.112 -0.5354,-0.2449 -0.5354,-0.3989 0,-0.252 0.5529,-0.4654 1.65869,-0.6404 1.1058,-0.1749 2.48454,-0.29043 4.13623,-0.34641 V 8.87598 c 0.265952,0.11198 0.594891,0.16797 0.986818,0.16797 0.433919,0 0.783854,-0.05599 1.049805,-0.16797 v 1.02881 c 0.825847,0 1.602697,0.02799 2.330567,0.08398 0.72786,0.05603 1.35775,0.12943 1.88965,0.22043 0.5319,0.091 0.95532,0.1995 1.27026,0.3255 0.31494,0.1259 0.47241,0.2449 0.47241,0.3569 m -7.99951,-0.7139 c -1.20377,0.028 -2.18359,0.105 -2.93945,0.231 -0.75586,0.126 -1.13379,0.2869 -1.13379,0.4829 0.5459,0.126 1.27026,0.217 2.17309,0.273 0.90284,0.0559 1.90015,0.0839 2.991948,0.0839 1.0778,0 2.075112,-0.028 2.991942,-0.0839 0.91683,-0.056 1.6482,-0.147 2.19409,-0.273 0,-0.196 -0.40592,-0.3569 -1.21777,-0.4829 -0.81185,-0.126 -1.81966,-0.203 -3.023437,-0.231 v 0.378 c 0,0 -0.090984,0.028 -0.27295,0.0839 -0.083984,0.028 -0.195963,0.042 -0.335937,0.042 -0.1399742,0 -0.286947,0 -0.440918,0 -0.391927,0 -0.629883,-0.014 -0.713867,-0.042 C -1.15658,10.5837 -1.24756,10.5557 -1.24756,10.5557 v -0.378"
         fill-rule="evenodd"
         vector-effect="none" />
    </g>
    <g
       id="g16"
       font-style="normal"
       font-weight="400"
       font-size="7.8px"
       font-family="'MS Shell Dlg 2'"
       stroke="none"
       fill-opacity="1"
       fill="#66b1e3" />
  </g>
</svg>

<?xml version="1.0" encoding="UTF-8" standalone="no"?>
<svg width="11.2889mm" height="11.2889mm"
 viewBox="0 0 32 32"
 xmlns="http://www.w3.org/2000/svg" xmlns:xlink="http://www.w3.org/1999/xlink"  version="1.2" baseProfile="tiny">
<title>Qt SVG Document</title>
<desc>Generated with Qt</desc>
<defs>
</defs>
<g fill="none" stroke="black" stroke-width="1" fill-rule="evenodd" stroke-linecap="square" stroke-linejoin="bevel" >

<g fill="#66b1e3" fill-opacity="1" stroke="none" transform="matrix(1,0,0,1,0,0)"
font-family="MS Shell Dlg 2" font-size="7.8" font-weight="400" font-style="normal" 
>
<path vector-effect="non-scaling-stroke" fill-rule="evenodd" d="M37.2598,16 C37.2598,27.7415 27.7415,37.2598 16,37.2598 C4.25851,37.2598 -5.25984,27.7415 -5.25984,16 C-5.25984,4.25851 4.25851,-5.25984 16,-5.25984 C27.7415,-5.25984 37.2598,4.25851 37.2598,16 "/>
</g>

<g fill="#ffffff" fill-opacity="0.94902" stroke="none" transform="matrix(1,0,0,1,16,13.1654)"
font-family="MS Shell Dlg 2" font-size="7.8" font-weight="400" font-style="normal" 
>
<path vector-effect="none" fill-rule="evenodd" d="M-3.38916,-1.09717 C-3.7111,-1.4751 -4.05404,-1.81803 -4.41797,-2.12598 C-4.7679,-2.41992 -5.18433,-2.68587 -5.66724,-2.92383 C-6.15015,-3.16178 -6.72754,-3.35775 -7.39941,-3.51172 C-8.36523,-3.67969 -9.01961,-3.96313 -9.36255,-4.36206 C-9.70549,-4.76099 -9.69499,-5.10742 -9.33105,-5.40137 C-9.00911,-5.62533 -8.5542,-5.7373 -7.96631,-5.7373 C-7.37842,-5.7373 -6.71354,-5.47835 -5.97168,-4.96045 C-5.59375,-4.7085 -5.24731,-4.35856 -4.93237,-3.91064 C-4.61743,-3.46273 -4.34798,-3.04281 -4.12402,-2.65088 C-3.98405,-2.38493 -3.85457,-2.12248 -3.7356,-1.86353 C-3.61662,-1.60457 -3.50114,-1.34912 -3.38916,-1.09717 M1.90186,-5.44336 C1.70589,-5.17741 1.48543,-4.92546 1.24048,-4.6875 C0.995524,-4.44954 0.757568,-4.09961 0.526611,-3.6377 C0.295654,-3.17578 0.0786947,-2.5494 -0.124268,-1.75854 C-0.32723,-0.967692 -0.498698,0.113607 -0.638672,1.48535 C-0.722656,0.589518 -0.852132,-0.180339 -1.0271,-0.824219 C-1.20207,-1.4681 -1.37354,-2.04549 -1.5415,-2.5564 C-1.70947,-3.0673 -1.85295,-3.53271 -1.97192,-3.95264 C-2.0909,-4.37256 -2.13639,-4.78548 -2.1084,-5.19141 C-2.05241,-5.72331 -1.90894,-6.19922 -1.67798,-6.61914 C-1.44702,-7.03906 -1.17407,-7.3855 -0.859131,-7.65845 C-0.544189,-7.9314 -0.197754,-8.12386 0.180176,-8.23584 C0.558105,-8.34782 0.915039,-8.37581 1.25098,-8.31982 C2.04883,-8.17985 2.47925,-7.82992 2.54224,-7.27002 C2.60522,-6.71012 2.39176,-6.10124 1.90186,-5.44336 M-10.6958,-3.15479 C-10.4718,-3.21077 -10.2094,-3.22477 -9.90845,-3.19678 C-9.6075,-3.16878 -9.32406,-3.12679 -9.05811,-3.0708 C-8.91813,-3.04281 -8.77116,-3.01481 -8.61719,-2.98682 C-8.46322,-2.95882 -8.30924,-2.91683 -8.15527,-2.86084 C-8.30924,-2.83285 -8.44922,-2.80485 -8.5752,-2.77686 C-8.70117,-2.74886 -8.83415,-2.70687 -8.97412,-2.65088 C-9.52002,-2.49691 -9.92594,-2.29395 -10.1919,-2.04199 C-10.4998,-1.73405 -10.8323,-1.60107 -11.1892,-1.64307 C-11.5461,-1.68506 -11.7666,-1.81803 -11.8506,-2.04199 C-11.9206,-2.23796 -11.8751,-2.45142 -11.7141,-2.68237 C-11.5531,-2.91333 -11.2137,-3.0708 -10.6958,-3.15479 M-4.94287,3.79492 C-6.03467,3.48698 -6.74504,3.09505 -7.07397,2.61914 C-7.40291,2.14323 -7.32243,1.7513 -6.83252,1.44336 C-6.4266,1.2054 -5.89469,1.09692 -5.23682,1.11792 C-4.57894,1.13892 -3.83708,1.47835 -3.01123,2.13623 C-2.46533,2.55615 -2.02091,3.03206 -1.67798,3.56396 C-1.33504,4.09587 -1.06909,4.62077 -0.880127,5.13867 C-0.691162,5.65658 -0.568685,6.14299 -0.512695,6.5979 C-0.456706,7.05282 -0.428711,7.42725 -0.428711,7.72119 L-0.260742,7.72119 C0.0891927,7.72119 0.393636,7.74919 0.652588,7.80518 C0.91154,7.86117 1.04102,7.93115 1.04102,8.01514 L1.04102,8.37207 C1.04102,8.48405 0.91154,8.56803 0.652588,8.62402 C0.393636,8.68001 0.0891927,8.70801 -0.260742,8.70801 C-0.59668,8.70801 -0.887126,8.68001 -1.13208,8.62402 C-1.37703,8.56803 -1.49951,8.48405 -1.49951,8.37207 L-1.49951,8.01514 C-1.49951,7.95915 -1.40503,7.89616 -1.21606,7.82617 C-1.0271,7.75618 -0.792643,7.72119 -0.512695,7.72119 C-0.568685,7.48324 -0.680664,7.18579 -0.848633,6.82886 C-1.0166,6.47192 -1.26855,6.10799 -1.60449,5.73706 C-1.94043,5.36613 -2.37785,5.0092 -2.91675,4.66626 C-3.45565,4.32332 -4.13102,4.03288 -4.94287,3.79492 M-6.47559,-2 C-6.27962,-2.08398 -5.98218,-2.06299 -5.58325,-1.93701 C-5.18433,-1.81104 -4.64193,-1.54508 -3.95605,-1.13916 C-3.41016,-0.831217 -2.95874,-0.467285 -2.60181,-0.0473633 C-2.24487,0.372559 -1.96143,0.771484 -1.75146,1.14941 C-1.5555,1.56934 -1.38753,1.99626 -1.24756,2.43018 C-1.35954,2.20622 -1.48551,1.99976 -1.62549,1.81079 C-1.76546,1.62183 -1.91243,1.42936 -2.06641,1.2334 C-2.34635,0.911458 -2.71029,0.586019 -3.1582,0.25708 C-3.60612,-0.0718587 -4.14502,-0.306315 -4.7749,-0.446289 C-5.68473,-0.65625 -6.25513,-0.932699 -6.48608,-1.27563 C-6.71704,-1.61857 -6.71354,-1.86003 -6.47559,-2 M4.48438,12.5293 L4.48438,17.0854 C3.8265,17.2954 3.13013,17.4564 2.39526,17.5684 C1.6604,17.6803 0.894043,17.7363 0.0961914,17.7363 C-0.743652,17.7363 -1.5625,17.6733 -2.36035,17.5474 C-3.1582,17.4214 -3.88607,17.2394 -4.54395,17.0015 L-4.54395,12.5713 C-5.11784,12.4593 -5.58325,12.3333 -5.94019,12.1934 C-6.29712,12.0534 -6.47559,11.9064 -6.47559,11.7524 L-6.47559,11.5425 C-5.94368,11.7804 -5.12484,11.9624 -4.01904,12.0884 C-2.91325,12.2144 -1.62549,12.2773 -0.155762,12.2773 C1.29997,12.2773 2.58773,12.2144 3.70752,12.0884 C4.82731,11.9624 5.64616,11.7804 6.16406,11.5425 L6.16406,11.7524 C6.16406,12.0744 5.59017,12.3333 4.44238,12.5293 L4.48438,12.5293 M2.15381,3.98389 C1.84587,4.03988 1.56242,4.16585 1.30347,4.36182 C1.04451,4.55778 0.810059,4.77474 0.600098,5.0127 C0.488118,5.15267 0.383138,5.30314 0.285156,5.46411 C0.187174,5.62508 0.0961914,5.78955 0.012207,5.95752 C0.012207,5.69157 0.0541992,5.40462 0.138184,5.09668 C0.194173,4.83073 0.302653,4.54728 0.463623,4.24634 C0.624593,3.94539 0.859049,3.65495 1.16699,3.375 C1.6569,2.88509 2.10832,2.59115 2.52124,2.49316 C2.93416,2.39518 3.2736,2.40218 3.53955,2.51416 C3.70752,2.59814 3.8265,2.71362 3.89648,2.8606 C3.96647,3.00757 3.96647,3.15104 3.89648,3.29102 C3.8265,3.43099 3.65503,3.56746 3.38208,3.70044 C3.10913,3.83341 2.69971,3.9279 2.15381,3.98389 M10.9302,-3.67969 C11.4481,-3.5957 11.784,-3.43823 11.938,-3.20728 C12.092,-2.97632 12.141,-2.74886 12.085,-2.5249 C12.001,-2.23096 11.7735,-2.06299 11.4026,-2.021 C11.0317,-1.979 10.6852,-2.11198 10.3633,-2.41992 C10.1113,-2.68587 9.7124,-2.88883 9.1665,-3.02881 C9.02653,-3.0848 8.89006,-3.12679 8.75708,-3.15479 C8.6241,-3.18278 8.48763,-3.21077 8.34766,-3.23877 L9.25049,-3.51172 C9.51644,-3.56771 9.79989,-3.6167 10.1008,-3.65869 C10.4018,-3.70068 10.6782,-3.70768 10.9302,-3.67969 M5.21924,-5.69531 C5.79313,-5.93327 6.27954,-6.01375 6.67847,-5.93677 C7.07739,-5.85978 7.34684,-5.72331 7.48682,-5.52734 C7.65479,-5.30339 7.63379,-5.05493 7.42383,-4.78198 C7.21387,-4.50903 6.82194,-4.38656 6.24805,-4.41455 C5.38021,-4.47054 4.64535,-4.37606 4.04346,-4.1311 C3.44157,-3.88615 2.86768,-3.51872 2.32178,-3.02881 C2.64372,-3.6307 3.05664,-4.1696 3.56055,-4.64551 C4.06445,-5.12142 4.61735,-5.47135 5.21924,-5.69531 M6.66797,-2.16797 C7.18587,-1.73405 7.17188,-1.28963 6.62598,-0.834717 C6.08008,-0.379801 5.19124,-0.110352 3.95947,-0.0263672 C3.10563,0.0576172 2.41276,0.264079 1.88086,0.593018 C1.34896,0.921956 0.922038,1.28939 0.600098,1.69531 C0.26416,2.18522 0.012207,2.67513 -0.155762,3.16504 C-0.127767,2.92708 -0.0857747,2.69613 -0.0297852,2.47217 C0.0262044,2.24821 0.082194,2.01725 0.138184,1.7793 C0.278158,1.38737 0.47762,0.953451 0.736572,0.477539 C0.995524,0.0016276 1.35596,-0.467285 1.81787,-0.929199 C2.7277,-1.83903 3.65503,-2.37443 4.59985,-2.5354 C5.54468,-2.69637 6.23405,-2.57389 6.66797,-2.16797 M6.75195,10.8916 C6.75195,11.0456 6.57349,11.1785 6.21655,11.2905 C5.85962,11.4025 5.36621,11.5005 4.73633,11.5845 C4.10645,11.6685 3.36808,11.7419 2.52124,11.8049 C1.6744,11.8679 0.782064,11.8994 -0.155762,11.8994 C-1.10758,11.8994 -1.99992,11.8679 -2.83276,11.8049 C-3.66561,11.7419 -4.39697,11.6685 -5.02686,11.5845 C-5.65674,11.5005 -6.15015,11.4025 -6.50708,11.2905 C-6.86401,11.1785 -7.04248,11.0456 -7.04248,10.8916 C-7.04248,10.6396 -6.48958,10.4262 -5.38379,10.2512 C-4.27799,10.0763 -2.89925,9.96077 -1.24756,9.90479 L-1.24756,8.87598 C-0.981608,8.98796 -0.652669,9.04395 -0.260742,9.04395 C0.173177,9.04395 0.523112,8.98796 0.789063,8.87598 L0.789063,9.90479 C1.61491,9.90479 2.39176,9.93278 3.11963,9.98877 C3.84749,10.0448 4.47738,10.1182 5.00928,10.2092 C5.54118,10.3002 5.9646,10.4087 6.27954,10.5347 C6.59448,10.6606 6.75195,10.7796 6.75195,10.8916 M-1.24756,10.1777 C-2.45133,10.2057 -3.43115,10.2827 -4.18701,10.4087 C-4.94287,10.5347 -5.3208,10.6956 -5.3208,10.8916 C-4.7749,11.0176 -4.05054,11.1086 -3.14771,11.1646 C-2.24487,11.2205 -1.24756,11.2485 -0.155762,11.2485 C0.922038,11.2485 1.91935,11.2205 2.83618,11.1646 C3.75301,11.1086 4.48438,11.0176 5.03027,10.8916 C5.03027,10.6956 4.62435,10.5347 3.8125,10.4087 C3.00065,10.2827 1.99284,10.2057 0.789063,10.1777 L0.789063,10.5557 C0.789063,10.5557 0.698079,10.5837 0.516113,10.6396 C0.432129,10.6676 0.32015,10.6816 0.180176,10.6816 C0.0402018,10.6816 -0.106771,10.6816 -0.260742,10.6816 C-0.652669,10.6816 -0.890625,10.6676 -0.974609,10.6396 C-1.15658,10.5837 -1.24756,10.5557 -1.24756,10.5557 L-1.24756,10.1777"/>
</g>

<g fill="#66b1e3" fill-opacity="1" stroke="none" transform="matrix(1,0,0,1,0,0)"
font-family="MS Shell Dlg 2" font-size="7.8" font-weight="400" font-style="normal" 
>
</g>
</g>
</svg>
